src/lib/packages/icons/src/assets/line/envelope-edit.svg

<svg width="24" height="24" viewBox="0 0 24 24" fill="none" xmlns="http://www.w3.org/2000/svg">
<path d="M11.75 19C11.75 19.414 11.414 19.75 11 19.75H5C2.582 19.75 1.25 18.418 1.25 16V7C1.25 4.582 2.582 3.25 5 3.25H17C19.418 3.25 20.75 4.582 20.75 7V10C20.75 10.414 20.414 10.75 20 10.75C19.586 10.75 19.25 10.414 19.25 10V7C19.25 5.423 18.577 4.75 17 4.75H5C3.423 4.75 2.75 5.423 2.75 7V16C2.75 17.577 3.423 18.25 5 18.25H11C11.414 18.25 11.75 18.586 11.75 19ZM17.106 7.55901C16.863 7.22501 16.3951 7.149 16.0581 7.394L11.146 10.966C11.058 11.029 10.941 11.029 10.853 10.966L5.94092 7.394C5.60292 7.149 5.13607 7.22601 4.89307 7.55901C4.64907 7.89401 4.72311 8.36399 5.05811 8.60699L9.96997 12.179C10.278 12.403 10.639 12.515 10.999 12.515C11.359 12.515 11.7211 12.403 12.0281 12.179L16.9399 8.60699C17.2759 8.36299 17.351 7.89401 17.106 7.55901ZM22.75 14.882C22.749 15.32 22.5781 15.732 22.2681 16.041L16.752 21.531C16.611 21.671 16.4209 21.75 16.2229 21.75H14C13.586 21.75 13.25 21.414 13.25 21V18.778C13.25 18.58 13.328 18.389 13.469 18.249L18.96 12.732C19.269 12.421 19.6809 12.25 20.1189 12.25C20.1189 12.25 20.1201 12.25 20.1211 12.25C20.5591 12.25 20.9701 12.42 21.2791 12.73L22.269 13.721C22.58 14.031 22.75 14.443 22.75 14.882ZM20.022 13.791L19.3889 14.427L20.573 15.611L21.209 14.978C21.243 14.945 21.25 14.907 21.25 14.88C21.25 14.853 21.243 14.815 21.209 14.781L20.219 13.79C20.186 13.756 20.1481 13.749 20.1211 13.749C20.0941 13.749 20.057 13.757 20.022 13.791ZM19.51 16.669L18.3311 15.49L14.75 19.088V20.251H15.9131L19.51 16.669Z" fill="currentColor"/>
</svg>

<svg xmlns="http://www.w3.org/2000/svg" width="24" height="24" fill="none"><path fill="currentColor" d="M11.75 19a.75.75 0 0 1-.75.75H5c-2.418 0-3.75-1.332-3.75-3.75V7c0-2.418 1.332-3.75 3.75-3.75h12c2.418 0 3.75 1.332 3.75 3.75v3a.75.75 0 0 1-1.5 0V7c0-1.577-.673-2.25-2.25-2.25H5c-1.577 0-2.25.673-2.25 2.25v9c0 1.577.673 2.25 2.25 2.25h6a.75.75 0 0 1 .75.75Zm5.356-11.441a.75.75 0 0 0-1.048-.165l-4.912 3.572a.25.25 0 0 1-.293 0L5.941 7.394a.75.75 0 0 0-.883 1.213l4.912 3.572a1.748 1.748 0 0 0 2.058 0l4.912-3.572a.748.748 0 0 0 .166-1.048Zm5.644 7.323c-.001.438-.172.85-.482 1.159l-5.516 5.49a.751.751 0 0 1-.53.219H14a.75.75 0 0 1-.75-.75v-2.222c0-.198.078-.389.219-.529l5.491-5.517c.309-.311.72-.482 1.159-.482h.002c.438 0 .85.17 1.158.48l.99.991c.311.31.481.722.481 1.161Zm-2.728-1.091-.633.636 1.184 1.184.636-.633a.133.133 0 0 0 .041-.098.136.136 0 0 0-.041-.099l-.99-.991a.133.133 0 0 0-.098-.041.14.14 0 0 0-.099.042Zm-.512 2.878-1.179-1.179-3.581 3.598v1.163h1.163l3.597-3.582Z"/></svg>
